flaticon/interaction/video-player-3.svg

<svg xmlns="http://www.w3.org/2000/svg" width="32" height="32" viewBox="0 0 24 24">
    <path d="M 20.871094 15.398438 L 18.632812 18.617188 L 17.054688 17.320312 C 16.882812 17.179688 16.628906 17.203125 16.492188 17.375 C 16.351562 17.546875 16.375 17.796875 16.546875 17.9375 L 18.460938 19.507812 C 18.53125 19.570312 18.621094 19.601562 18.714844 19.601562 C 18.730469 19.601562 18.75 19.597656 18.769531 19.597656 C 18.878906 19.582031 18.980469 19.519531 19.042969 19.429688 L 21.527344 15.855469 C 21.65625 15.675781 21.609375 15.425781 21.429688 15.300781 C 21.246094 15.171875 20.996094 15.21875 20.871094 15.398438 Z M 20.871094 15.398438"/>
    <path d="M 23.199219 14.839844 L 23.199219 1.601562 C 23.199219 1.378906 23.019531 1.199219 22.800781 1.199219 L 0.398438 1.199219 C 0.179688 1.199219 0 1.378906 0 1.601562 L 0 19.199219 C 0 19.421875 0.179688 19.601562 0.398438 19.601562 L 14 19.601562 C 14.785156 21.476562 16.640625 22.800781 18.800781 22.800781 C 21.667969 22.800781 24 20.46875 24 17.601562 C 24 16.585938 23.703125 15.640625 23.199219 14.839844 Z M 19.199219 12.414062 L 19.199219 10.800781 L 22.398438 10.800781 L 22.398438 13.847656 C 22.332031 13.78125 22.257812 13.722656 22.1875 13.664062 C 22.152344 13.632812 22.117188 13.601562 22.082031 13.570312 C 21.988281 13.496094 21.890625 13.421875 21.792969 13.355469 C 21.753906 13.328125 21.71875 13.300781 21.679688 13.273438 C 21.582031 13.210938 21.480469 13.148438 21.378906 13.089844 C 21.335938 13.066406 21.292969 13.039062 21.25 13.015625 C 21.15625 12.964844 21.058594 12.921875 20.960938 12.875 C 20.945312 12.867188 20.929688 12.859375 20.914062 12.855469 C 20.875 12.835938 20.835938 12.816406 20.792969 12.796875 C 20.71875 12.765625 20.640625 12.742188 20.566406 12.714844 C 20.53125 12.703125 20.5 12.691406 20.46875 12.679688 C 20.417969 12.660156 20.367188 12.640625 20.316406 12.625 C 20.261719 12.609375 20.203125 12.597656 20.148438 12.582031 C 20.097656 12.566406 20.042969 12.554688 19.992188 12.542969 C 19.9375 12.53125 19.878906 12.511719 19.824219 12.5 C 19.785156 12.492188 19.746094 12.488281 19.707031 12.484375 C 19.632812 12.46875 19.558594 12.460938 19.484375 12.449219 C 19.429688 12.441406 19.375 12.429688 19.316406 12.425781 C 19.296875 12.425781 19.273438 12.421875 19.25 12.421875 C 19.234375 12.421875 19.21875 12.417969 19.199219 12.414062 Z M 22.398438 10 L 19.199219 10 L 19.199219 6.398438 L 22.398438 6.398438 Z M 22.398438 2 L 22.398438 5.601562 L 19.199219 5.601562 L 19.199219 2 Z M 4 10 L 0.800781 10 L 0.800781 6.398438 L 4 6.398438 Z M 0.800781 10.800781 L 4 10.800781 L 4 14.398438 L 0.800781 14.398438 Z M 0.800781 2 L 4 2 L 4 5.601562 L 0.800781 5.601562 Z M 0.800781 18.800781 L 0.800781 15.199219 L 4 15.199219 L 4 18.800781 Z M 13.742188 18.800781 L 4.800781 18.800781 L 4.800781 2 L 18.398438 2 L 18.398438 12.421875 C 15.71875 12.625 13.601562 14.867188 13.601562 17.601562 C 13.601562 17.796875 13.613281 17.992188 13.636719 18.183594 C 13.636719 18.210938 13.644531 18.242188 13.648438 18.273438 C 13.671875 18.441406 13.699219 18.613281 13.738281 18.777344 C 13.742188 18.785156 13.742188 18.792969 13.742188 18.800781 Z M 18.800781 22 C 16.886719 22 15.257812 20.769531 14.652344 19.058594 C 14.617188 18.949219 14.582031 18.84375 14.554688 18.734375 C 14.546875 18.710938 14.542969 18.6875 14.535156 18.664062 C 14.511719 18.570312 14.492188 18.476562 14.472656 18.378906 C 14.464844 18.324219 14.457031 18.273438 14.449219 18.21875 C 14.4375 18.144531 14.425781 18.074219 14.421875 18.003906 C 14.410156 17.871094 14.398438 17.734375 14.398438 17.601562 C 14.398438 15.175781 16.375 13.199219 18.800781 13.199219 C 18.96875 13.199219 19.140625 13.210938 19.304688 13.230469 C 19.339844 13.234375 19.371094 13.242188 19.40625 13.246094 C 19.511719 13.261719 19.613281 13.28125 19.714844 13.304688 C 19.742188 13.308594 19.773438 13.3125 19.800781 13.320312 C 19.832031 13.328125 19.863281 13.335938 19.894531 13.34375 C 20.027344 13.378906 20.160156 13.417969 20.289062 13.464844 C 20.3125 13.472656 20.335938 13.480469 20.359375 13.492188 C 20.507812 13.546875 20.652344 13.609375 20.792969 13.683594 C 20.796875 13.683594 20.800781 13.6875 20.804688 13.6875 C 20.949219 13.761719 21.089844 13.847656 21.222656 13.9375 C 21.234375 13.941406 21.242188 13.945312 21.253906 13.953125 C 21.378906 14.035156 21.496094 14.128906 21.613281 14.226562 C 21.632812 14.242188 21.652344 14.257812 21.671875 14.273438 C 21.777344 14.363281 21.875 14.460938 21.96875 14.5625 C 21.996094 14.589844 22.023438 14.617188 22.050781 14.644531 C 22.054688 14.648438 22.058594 14.652344 22.058594 14.65625 C 22.144531 14.75 22.222656 14.847656 22.296875 14.945312 C 22.351562 15.015625 22.40625 15.085938 22.457031 15.160156 C 22.925781 15.855469 23.199219 16.695312 23.199219 17.601562 C 23.199219 20.027344 21.226562 22 18.800781 22 Z M 18.800781 22"/>
    <path d="M 14.800781 10.398438 C 14.800781 10.261719 14.730469 10.136719 14.613281 10.0625 L 10.214844 7.261719 C 10.089844 7.183594 9.933594 7.179688 9.808594 7.25 C 9.679688 7.320312 9.601562 7.453125 9.601562 7.601562 L 9.601562 13.199219 C 9.601562 13.347656 9.679688 13.480469 9.808594 13.550781 C 9.867188 13.582031 9.933594 13.601562 10 13.601562 C 10.074219 13.601562 10.148438 13.578125 10.214844 13.539062 L 14.613281 10.738281 C 14.730469 10.664062 14.800781 10.535156 14.800781 10.398438 Z M 10.398438 12.472656 L 10.398438 8.328125 L 13.65625 10.398438 Z M 10.398438 12.472656"/>
</svg>

<svg xmlns="http://www.w3.org/2000/svg" width="32" height="32" viewBox="0 0 24 24">
    <path d="M20.871 15.398l-2.238 3.22-1.578-1.298a.398.398 0 0 0-.563.055.398.398 0 0 0 .055.563l1.914 1.57c.07.062.16.094.254.094.015 0 .035-.004.055-.004a.408.408 0 0 0 .273-.168l2.484-3.575a.4.4 0 0 0-.656-.457zm0 0"/>
    <path d="M23.2 14.84V1.602a.401.401 0 0 0-.4-.403H.399A.401.401 0 0 0 0 1.602v17.597c0 .223.18.403.398.403H14a5.211 5.211 0 0 0 4.8 3.199c2.868 0 5.2-2.332 5.2-5.2 0-1.015-.297-1.96-.8-2.761zm-4-2.426v-1.613h3.198v3.047c-.066-.067-.14-.125-.21-.184l-.106-.094a5.03 5.03 0 0 0-.289-.215c-.04-.027-.074-.054-.113-.082a7.71 7.71 0 0 0-.301-.183l-.129-.074c-.094-.051-.191-.094-.29-.141-.015-.008-.03-.016-.046-.02-.039-.02-.078-.039-.121-.058-.074-.031-.152-.055-.227-.082l-.097-.035c-.051-.02-.102-.04-.153-.055-.054-.016-.113-.027-.168-.043-.05-.016-.105-.027-.156-.039-.055-.012-.113-.031-.168-.043a1.204 1.204 0 0 0-.117-.016c-.074-.015-.148-.023-.223-.035-.054-.008-.109-.02-.168-.023-.02 0-.043-.004-.066-.004-.016 0-.031-.004-.05-.008zM22.397 10H19.2V6.398h3.2zm0-8v3.602H19.2V2zM4 10H.8V6.398H4zm-3.2.8H4v3.598H.8zM.8 2H4v3.602H.8zm0 16.8v-3.6H4v3.6zm12.942 0H4.801V2h13.597v10.422a5.198 5.198 0 0 0-4.796 5.18c0 .195.011.39.035.582 0 .027.008.058.011.09a5.438 5.438 0 0 0 .094.527zm5.059 3.2a4.408 4.408 0 0 1-4.149-2.941c-.035-.11-.07-.215-.097-.325-.008-.023-.012-.047-.02-.07a6.109 6.109 0 0 1-.062-.285l-.024-.16c-.011-.074-.023-.145-.027-.215a4.63 4.63 0 0 1-.024-.402 4.41 4.41 0 0 1 4.403-4.403c.168 0 .34.012.504.031.035.004.066.012.101.016.106.016.207.035.309.059.027.004.058.008.086.015l.094.024a4.6 4.6 0 0 1 .464.148c.149.055.293.117.434.192.004 0 .008.004.012.004.144.074.285.16.418.25.011.003.02.007.03.015.126.082.243.176.36.274l.059.046c.105.09.203.188.297.29l.082.082a4.06 4.06 0 0 1 .246.3c.055.07.11.14.16.215.469.695.742 1.535.742 2.442A4.403 4.403 0 0 1 18.801 22zm0 0"/>
    <path d="M14.8 10.398a.396.396 0 0 0-.187-.335l-4.398-2.801a.399.399 0 0 0-.613.34v5.597c0 .149.078.281.207.352.058.031.125.05.191.05a.428.428 0 0 0 .215-.062l4.398-2.8a.403.403 0 0 0 .188-.34zm-4.402 2.075V8.328l3.258 2.07zm0 0"/>
</svg>
